public/images/logo-symbol.svg

<svg fill="none" height="48" viewBox="0 0 48 48" width="48" xmlns="http://www.w3.org/2000/svg"><rect fill="#ff8442" height="48" rx="12" width="48"/><path d="m30.3082 18.1154h-.6429c-.8571 0-1.7143.0769-2.5714.2692-.8572.2308-1.4286.6154-1.6429 1.1539-.0714.1538-.0714.3077-.0714.4615 0 .5385.4286 1 1.0714 1.4231.5.3077 1.1429.6154 1.7143.9231 1 .6153 3.5 1.0384 4.5714 1.5769 1.1429.5384 2.1429 1.1154 3.2143 1.6923 1.0715.6154 1.5715 1.3846 1.9286 2.1538.2857.6154.4286 1.1923.4286 1.8077 0 .3846-.0715.8077-.2143 1.1923-.1429.9616-.9286 1.7693-1.5 2.577-.4286.5-1.0714.923-1.5714 1.423-.1429.1923-.5.3462-.7858.5385-.7142.4231-1.5.8077-2.4285 1.1154-.0715.0384-.2143.0769-.3572.1154-2.7143.6923-5.5 1.1923-9.4285 1.3846-.8572.0384-2.2143.0769-3.2143.0769h-.4286c-1.7857 0-2.0225-.0769-3.3796-.0769-.5 0-1.5714-.2693-2-.4231-1-.5-1.1836-.6336-1.5-1-.5979-.6923-1.5-1.5385-1.5-2.5 0-1.2692 0-.8462 0-2 0-.5769.9021-2.0492.9021-2.0492s.0979-.4508.5979-.9508l1-.5s1.1428-.5 1.5-.5c0 0 .5225.0385 1.6653.0385.9286 0 1.8572-.0385 2.5714-.1539 1.7143-.2692 3.2858-.6923 4.4286-1.4615.5714-.3846.8572-.8462.8572-1.2693 0-.4615-.3572-.923-1-1.2307-.5-.3077-.9286-.6154-1.4286-.9231-.7857-.4231-2-.8077-2.9286-1.1538-.7143-.2308-1.3571-.5-1.9286-.7693-.8571-.4231-1.7142-.8846-2.5-1.3461-1.0714-.6539-1.7142-1.3077-2.5-2.2308-.5-.6538-.6428-1.0769-.7142-1.7692v-.2308c0-1.8462 2.2142-2.9615 4.2142-3.7692 2.5715-1.077 5.7143-1.4231 9.9286-1.6539 1-.0769 2.0714-.0769 3.0714-.0769 2.9286 0 6.6429 0 8.8572.8077.7857.6923 1.1428.7692 1.2857 1.1923l.3571 1.0769c0 .4231 0 .7308.0715 1.4231.0714.3846.0714.5769.0714.9615 0 .6923-.0714.778-.5 1.0385l-.5.5c-1 .5-2 1-2.5 1-.5714 0-2.5.1154-4.5714.1154z" fill="#fff"/></svg>

<svg width="48" height="48" viewBox="0 0 48 48" fill="none" xmlns="http://www.w3.org/2000/svg">
<rect width="48" height="48" rx="12" fill="#FF8442"/>
<path d="M30.3082 18.1154H29.6653C28.8082 18.1154 27.951 18.1923 27.0939 18.3846C26.2367 18.6154 25.6653 19 25.451 19.5385C25.3796 19.6923 25.3796 19.8462 25.3796 20C25.3796 20.5385 25.8082 21 26.451 21.4231C26.951 21.7308 27.5939 22.0385 28.1653 22.3462C29.1653 22.9615 31.6653 23.3846 32.7367 23.9231C33.8796 24.4615 34.8796 25.0385 35.951 25.6154C37.0225 26.2308 37.5225 27 37.8796 27.7692C38.1653 28.3846 38.3082 28.9615 38.3082 29.5769C38.3082 29.9615 38.2367 30.3846 38.0939 30.7692C37.951 31.7308 37.1653 32.5385 36.5939 33.3462C36.1653 33.8462 35.5225 34.2692 35.0225 34.7692C34.8796 34.9615 34.5225 35.1154 34.2367 35.3077C33.5225 35.7308 32.7367 36.1154 31.8082 36.4231C31.7367 36.4615 31.5939 36.5 31.451 36.5385C28.7367 37.2308 25.951 37.7308 22.0225 37.9231C21.1653 37.9615 19.8082 38 18.8082 38H18.3796C16.5939 38 16.3571 37.9231 15 37.9231C14.5 37.9231 13.4286 37.6538 13 37.5C12 37 11.8164 36.8664 11.5 36.5C10.9021 35.8077 10 34.9615 10 34C10 32.7308 10 33.1538 10 32C10 31.4231 10.9021 29.9508 10.9021 29.9508C10.9021 29.9508 11 29.5 11.5 29L12.5 28.5C12.5 28.5 13.6428 28 14 28C14 28 14.5225 28.0385 15.6653 28.0385C16.5939 28.0385 17.5225 28 18.2367 27.8846C19.951 27.6154 21.5225 27.1923 22.6653 26.4231C23.2367 26.0385 23.5225 25.5769 23.5225 25.1538C23.5225 24.6923 23.1653 24.2308 22.5225 23.9231C22.0225 23.6154 21.5939 23.3077 21.0939 23C20.3082 22.5769 19.0939 22.1923 18.1653 21.8462C17.451 21.6154 16.8082 21.3462 16.2367 21.0769C15.3796 20.6538 14.5225 20.1923 13.7367 19.7308C12.6653 19.0769 12.0225 18.4231 11.2367 17.5C10.7367 16.8462 10.5939 16.4231 10.5225 15.7308V15.5C10.5225 13.6538 12.7367 12.5385 14.7367 11.7308C17.3082 10.6538 20.451 10.3077 24.6653 10.0769C25.6653 10 26.7367 10 27.7367 10C30.6653 10 34.3796 10 36.5939 10.8077C37.3796 11.5 37.7367 11.5769 37.8796 12L38.2367 13.0769C38.2367 13.5 38.2367 13.8077 38.3082 14.5C38.3796 14.8846 38.3796 15.0769 38.3796 15.4615C38.3796 16.1538 38.3082 16.2395 37.8796 16.5L37.3796 17C36.3796 17.5 35.3796 18 34.8796 18C34.3082 18 32.3796 18.1154 30.3082 18.1154Z" fill="white"/>
</svg>
